X:1
T:Title
%%score { 1 | 2 }
L:1/8
Q:1/4=94
M:4/4
K:Bb
V:1 treble nm="Grand Piano"
V:2 bass 
V:1
 [Dd][DF] [DF]2 [Dd][DF] [DF]2 | [Dd][DF][DB][Dc] [EB][EA] [EA]2 | [Ee][EG] [EG]2 [Ee][EG] [EG]2 | %3
w: Geo.~C.~Hugg * * * * *|||
 [Ee][EG][EA][EG] [DG][DF] [DF]2 | [Dd][DF] [DF]2 [Dd][DF] [DF]2 | %5
w: ||
 [Dd][DF][DB][Dc] [EB][EA] [EA]2 | [Ee][EG] [EG]2 [Ee][EG] [EG]2 |[M:9/8] [Ee][EG]A FGA [DB]3 | %8
w: |||
[M:4/4] [Dd]2 [Dd]2 [Dd]2 [Dd]2 | [Dd]ccc c4 | [EAe]2 [EAe]2 [EAe]2 [EAe]2 | %11
w: |||
 [Ge][Fd][Fd][Fd] [Fd]4 | [Dd]2 [Dd]2 [Dd]2 [Dd]2 | [Dd]ccc c4 | [EAe]2 [EAe]2 [EAe]2 [EAe]2 | %15
w: ||||
 dcGA [DB]4 | [Dd][DF][DG][DF] [Dd][DF][DG][DF] | [Dd][DF][DB][Ec] [EB][EA] [EA]2 | eFGF eFGF | %19
w: ||||
 eFAG [DG][DF] [DF]2 | [Dd][DF][DG][DF] [Dd][DF][DG][DF] | [Dd][DF][DB][Dc] [EB][EA] [EA]2 | %22
w: |||
 eFGF eFGF |[M:9/8] eFG FGA [DB]3 |[M:4/4] [Ge] [Ge]3- [Ge]4 | [EB] [EB]3- [EB]4 | %26
w: ||||
 [Dd] [Dd]3- [Dd]4 |] %27
w: |
V:2
 [B,,F,][B,,B,] [B,,B,]2 [B,,F,][B,,B,] [B,,B,]2 | %1
 [B,,F,][B,,B,][B,,F,][B,,F,] [C,F,][C,F,] [C,F,]2 | [C,G,][C,C] [C,C]2 [C,G,][C,C] [C,C]2 | %3
 [C,G,][C,C][F,C][F,C] [B,,B,][B,,B,] [B,,B,]2 | [B,,F,][B,,B,] [B,,B,]2 [B,,F,][B,,B,] [B,,B,]2 | %5
 [B,,F,][B,,B,][B,,F,][B,,F,] [C,F,][C,F,] [C,F,]2 | [C,G,][C,C] [C,C]2 [C,G,][C,C] [C,C]2 | %7
[M:9/8] [C,G,][C,C][F,CE] [F,A,E][F,B,E][F,CE] [B,,F,]3 | %8
[M:4/4] [B,,B,]2 [F,,F,]2 [D,,D,]2 [B,,,B,,]2 | [F,B,][F,A,E][F,A,E][F,A,E] [F,A,E]4 | %10
 F,,2 A,,2 C,2 F,2 | [B,,B,][B,,B,][B,,B,][B,,B,] [B,,B,]4 | %12
 [B,,B,]2 [F,,F,]2 [D,,D,]2 [B,,,B,,]2 | [F,B,][F,A,E][F,A,E][F,A,E] [F,A,E]4 | F,,2 A,,2 C,2 F,2 | %15
 [F,A,E][F,A,E][F,CE][F,CE] [B,,F,B,]4 | %16
 [B,,F,][B,,B,][B,,B,][B,,B,] [B,,F,][B,,B,][B,,B,][B,,B,] | %17
 [B,,F,][B,,B,][B,,F,][B,,F,] [C,F,][C,F,] [C,F,]2 | %18
 [F,A,E][F,A,E][F,B,E][F,A,E] [F,A,E][F,A,E][F,B,E][F,A,E] | %19
 [F,A,E][F,A,E][F,CE][F,A,E] [B,,B,][B,,B,] [B,,B,]2 | %20
 [B,,F,][B,,B,][B,,B,][B,,B,] [B,,F,][B,,B,][B,,B,][B,,B,] | %21
 [B,,F,][B,,B,][B,,F,][B,,F,] [C,F,][C,F,] [C,F,]2 | %22
 [F,A,E][F,A,E][F,B,E][F,A,E] [F,A,E][F,A,E][F,B,E][F,A,E] | %23
[M:9/8] [F,A,E][F,A,E][F,B,E] [F,A,E][F,B,E][F,CE] [B,,F,B,]3 |[M:4/4] [E,B,] [E,B,]3- [E,B,]4 | %25
 [E,G,] [E,G,]3- [E,G,]4 | [B,,F,B,] [B,,F,B,]3- [B,,F,B,]4 |] %27

